X:103
T:Harvest Home
R:Hornpipe
C:Trad
M:4/4
L:1/8
K:D
A2|:FADA FADA|defe dcBA|e2f2 g2f2|edcB AGFE|
  |FADA FADA|defe dcBA|e2f2 gece|1 d2f2d2 A2:|2 d2f2d2 cd|
  |:eAAA fAAA|gAAA fAAA|eAfA gAfA|edcB AGFE|
  |DAFA DAFA|defe dcBA|e2f2 gece|1 d2f2d2 cd:|2 d2f2d2 A2|
